icon-themes/breeze_svg/cmd/lc_navigator.svg

<svg viewBox="0 0 24 24" xmlns="http://www.w3.org/2000/svg"><path d="m12 4a8 8 0 0 0 -8 8 8 8 0 0 0 8 8 8 8 0 0 0 8-8 8 8 0 0 0 -8-8zm0 1a7 7 0 0 1 7 7 7 7 0 0 1 -7 7 7 7 0 0 1 -7-7 7 7 0 0 1 7-7zm3 4-3 1a2 2 0 0 0 -2 2l-1 3 3-1a2 2 0 0 0 2-2zm-3 2a1 1 0 0 1 1 1 1 1 0 0 1 -1 1 1 1 0 0 1 -1-1 1 1 0 0 1 1-1z" fill="#4d4d4d"/></svg>

<svg xmlns="http://www.w3.org/2000/svg" viewBox="0 0 24 24">
 <path 
     style="fill:#4d4d4d" 
     d="M 12 4 A 8 8 0 0 0 4 12 A 8 8 0 0 0 12 20 A 8 8 0 0 0 20 12 A 8 8 0 0 0 12 4 z M 12 5 A 7 7 0 0 1 19 12 A 7 7 0 0 1 12 19 A 7 7 0 0 1 5 12 A 7 7 0 0 1 12 5 z M 15 9 L 12 10 A 2 2 0 0 0 10 12 L 9 15 L 12 14 A 2 2 0 0 0 14 12 L 15 9 z M 12 11 A 1 1 0 0 1 13 12 A 1 1 0 0 1 12 13 A 1 1 0 0 1 11 12 A 1 1 0 0 1 12 11 z "
     />
 </svg>
